X: 255
T:Paradise Place
M:C|
L:1/8
C:Niall Vallely
R:reel
D:The Irish Folk Festival 2000: The Lighthouse of Tradition
Z:Devin McCabe
K:ADor
A2 A/2A/2A GAAE|AAcB AGEG|A2 A/2A/2A GAAE|AAed c/2B/2A AG|
!A2 A/2A/2A GAAE|AAcB AGEG|Aee~d- d2 ~c2-|cBBA AGEG:|
!:e3e- e2ed|cABA AGEG|Aeed e2df|gefe edcB|
!Aeed e2de|cABA AGED|E2DE GABA|AGEG A2AG:|
